X: 2
T:Johnny, Johnny, Don't Get Drunk
R:reel
L:1/8
M:C|
K:D
|: "D"fa-a2 a2g2 | fd-ec- d3A | "G"B(ABc) dBAG | "A"FE-E2 E4 |
   "D"fa-a2 a2g2 | fd-ec- d3A | "G"B(ABc) dBAG | "A"F(DEF) "D"D4 :|
|: "D"FA-A2 A2A2 | F-GA-B A3A | "G"B(ABc) dBAG | "A"FE-E2 E4 |
   "D"FA-A2 A2d2 | "G"BA-Bc- "D"d3A | "G"B(ABc) dBAG | "A"F(DEF) "D"D4 :|
N:Portland Collection, pg 115 - adapted by Peter Ostapenko.
N:Last update - PO 6/3/2007.
N:D Major
%Chords from Kirk Pickering - Pegram Jam Chord Chart Book
% - Version 44 October 2006
